modules/hawcons-stroke/icons/icon-92-document-file-tga.svg

<?xml version="1.0" encoding="UTF-8" standalone="no"?>
<svg width="32px" height="32px" viewBox="0 0 32 32" version="1.1" xmlns="http://www.w3.org/2000/svg" xmlns:xlink="http://www.w3.org/1999/xlink" xmlns:sketch="http://www.bohemiancoding.com/sketch/ns">
    <!-- Generator: Sketch 3.0.3 (7891) - http://www.bohemiancoding.com/sketch -->
    <title>icon 92 document file tga</title>
    <desc>Created with Sketch.</desc>
    <defs></defs>
    <g id="Page-1" stroke="none" stroke-width="1" fill="none" fill-rule="evenodd" sketch:type="MSPage">
        <g id="icon-92-document-file-tga" sketch:type="MSArtboardGroup" fill="#929292">
            <path d="M21,13 L21,10 L21,10 L15,3 L4.00276013,3 C2.89666625,3 2,3.89833832 2,5.00732994 L2,27.9926701 C2,29.1012878 2.89092539,30 3.99742191,30 L19.0025781,30 C20.1057238,30 21,29.1017876 21,28.0092049 L21,26 L28.9931517,26 C30.6537881,26 32,24.6577357 32,23.0012144 L32,15.9987856 C32,14.3426021 30.6640085,13 28.9931517,13 L21,13 L21,13 L21,13 Z M20,26 L20,28.0066023 C20,28.5550537 19.5523026,29 19.0000398,29 L3.9999602,29 C3.45470893,29 3,28.5543187 3,28.004543 L3,4.99545703 C3,4.45526288 3.44573523,4 3.9955775,4 L14,4 L14,8.99408095 C14,10.1134452 14.8944962,11 15.9979131,11 L20,11 L20,13 L12.0068483,13 C10.3462119,13 9,14.3422643 9,15.9987856 L9,23.0012144 C9,24.6573979 10.3359915,26 12.0068483,26 L20,26 L20,26 L20,26 Z M15,4.5 L15,8.99121523 C15,9.54835167 15.4506511,10 15.9967388,10 L19.6999512,10 L15,4.5 L15,4.5 Z M11.9945615,14 C10.8929956,14 10,14.9001762 10,15.992017 L10,23.007983 C10,24.1081436 10.9023438,25 11.9945615,25 L29.0054385,25 C30.1070044,25 31,24.0998238 31,23.007983 L31,15.992017 C31,14.8918564 30.0976562,14 29.0054385,14 L11.9945615,14 L11.9945615,14 Z M14,17 L14,23 L15,23 L15,17 L17,17 L17,16 L12,16 L12,17 L14,17 L14,17 Z M22,20 L22,22 L19.9998075,22 C19.4437166,22 19,21.5523709 19,21.0001925 L19,17.9998075 C19,17.4437166 19.4476291,17 19.9998075,17 L23,17 L23,16 L20.0048815,16 C18.897616,16 18,16.8865548 18,18.0059191 L18,20.9940809 C18,22.1019194 18.8938998,23 20.0048815,23 L23,23 L23,22.25 L23,22.25 L23,20 L23,19 L20,19 L20,20 L22,20 L22,20 Z M28,20 L25,20 L25,23 L24,23 L24,19.5 L24,18 C24,16.8877296 24.897616,16 26.0048815,16 L26.9951185,16 C28.1061002,16 29,16.8954305 29,18 L29,20 L29,23 L28,23 L28,20 L28,20 Z M25.9989566,17 C25.4472481,17 25,17.4438648 25,18 L25,19 L28,19 L28,18 C28,17.4477153 27.5573397,17 27.0010434,17 L25.9989566,17 L25.9989566,17 Z" id="document-file-tga" sketch:type="MSShapeGroup"></path>
        </g>
    </g>
</svg>

<svg width="32" height="32" viewBox="0 0 32 32" xmlns="http://www.w3.org/2000/svg"><path d="M21 13v-3l-6-7H4.003A2.005 2.005 0 0 0 2 5.007v22.986A2 2 0 0 0 3.997 30h15.006A1.999 1.999 0 0 0 21 28.01V26h7.993A3.003 3.003 0 0 0 32 23.001V16A2.996 2.996 0 0 0 28.993 13H21zm-1 13v2.007A.997.997 0 0 1 19 29H4c-.545 0-1-.446-1-.995V4.995c0-.54.446-.995.996-.995H14v4.994c0 1.12.894 2.006 1.998 2.006H20v2h-7.993A3.003 3.003 0 0 0 9 15.999V23A2.996 2.996 0 0 0 12.007 26H20zM15 4.5v4.491c0 .557.45 1.009.997 1.009H19.7L15 4.5zM11.995 14C10.893 14 10 14.9 10 15.992v7.016A2 2 0 0 0 11.995 25h17.01C30.107 25 31 24.1 31 23.008v-7.016A2 2 0 0 0 29.005 14h-17.01zM14 17v6h1v-6h2v-1h-5v1h2zm8 3v2h-2c-.556 0-1-.448-1-1v-3c0-.556.448-1 1-1h3v-1h-2.995A1.998 1.998 0 0 0 18 18.006v2.988c0 1.108.894 2.006 2.005 2.006H23v-4h-3v1h2zm6 0h-3v3h-1v-5c0-1.112.898-2 2.005-2h.99A2 2 0 0 1 29 18v5h-1v-3zm-2.001-3A.997.997 0 0 0 25 18v1h3v-1c0-.552-.443-1-.999-1h-1.002z" fill="#929292" fill-rule="evenodd"/></svg>
